X:1
T: Auld Wife beyont the Fire
C:
R:Reel
Q: 232
K:G
M:4/4
L:1/8
|:c|B2 AG E1/2E1/2E cA|B2 AG G1/2G1/2G gd|B2 AG E1/2E1/2E cA|Bd AB G2 Gc|
B2 AG E1/2E1/2E cA|B2 AG G1/2G1/2G gd|B2 AG E1/2E1/2E cA|Bd AB G2 Gc|
Bd de cd cA|Bd dg ef gd|Bd de de dA|Bd AB G2 Gc|
Bd de cd cA|Bd dg ef gd|eg dg Bg Ae|dB cA G2 G:|
